resources/haticons/SVG/corporate_fare.svg

<svg height="24" width="24" xmlns="http://www.w3.org/2000/svg"><path d="m12 6.984v-3.984h-9.984v18h19.969v-14.016h-9.984zm-2.016 12h-6v-1.969h6zm0-3.984h-6v-2.016h6zm0-3.984h-6v-2.016h6zm0-4.032h-6v-1.969h6zm10.032 12h-8.016v-9.984h8.016zm-2.016-7.968h-3.984v1.969h3.984zm0 3.984h-3.984v2.016h3.984z"/></svg>

<svg height="24" width="24" xmlns="http://www.w3.org/2000/svg"><path d="M12 6.984V3H2.016v18h19.969V6.984h-9.984zm-2.016 12h-6v-1.969h6zm0-3.984h-6v-2.016h6zm0-3.984h-6V9h6zm0-4.032h-6V5.015h6zm10.032 12H12V9h8.016zM18 11.016h-3.984v1.969H18zM18 15h-3.984v2.016H18z"/></svg>
